icons/ppe-face-shield-alt_fill.svg

<svg width="48" height="48" viewBox="0 0 48 48" fill="none" xmlns="http://www.w3.org/2000/svg">
<path fill-rule="evenodd" clip-rule="evenodd" d="M37.6381 27.8114C37.3954 27.9413 37.1238 28.0089 36.848 28.008H34.9133L34.7586 36H33.4634C30.9635 36 28.5597 34.9767 26.7824 33.1448C25.0042 31.3119 24 28.8197 24 26.2149V14H33.6746C33.7613 14.3357 33.8233 14.6752 33.8218 14.9069L34.0153 18.0739C34.0153 18.0739 36.7428 22.1093 38.3623 25.7041C38.4745 25.9538 38.5219 26.2275 38.5 26.5C38.4782 26.7725 38.3879 27.0353 38.2374 27.2644C38.0868 27.4935 37.8808 27.6815 37.6381 27.8114ZM32.7999 12H35.021C36.8819 12 38.6602 12.7623 39.9665 14.1088C41.2719 15.4542 42 17.2728 42 19.1629V38H34.7198L34.7586 36H40V19.1629C40 17.784 39.4683 16.4675 38.5311 15.5014C37.5948 14.5364 36.3316 14 35.021 14H33.6746C33.586 13.6564 33.4715 13.3167 33.3728 13.1006C33.1936 12.7153 33.0028 12.3487 32.7999 12ZM32.7999 12H22V12.1007H8.59568C11.8123 7.50879 17.6312 5.07418 23.944 6.32729C28.148 7.16283 30.9666 8.84925 32.7999 12ZM7.4279 14.1007L22 14.1007V19.3256H6.03734C6.19099 17.4312 6.67455 15.6751 7.4279 14.1007ZM6 21.3256H22V26.2149C22 29.3309 23.2007 32.3251 25.347 34.5374C26.6587 35.8895 28.2584 36.8818 30.0001 37.4494V38H27.5359V42H10.9585V31.6572C9.37758 30.2587 8.11604 28.5416 7.25831 26.6209C6.51046 24.9462 6.08461 23.1504 6 21.3256Z" fill="black"/>
</svg>

<svg
  xmlns="http://www.w3.org/2000/svg"
  width="24"
  height="24"
  viewBox="0 0 24 24"
  fill="none"
  stroke="currentColor"
  stroke-width="2"
  stroke-linecap="round"
  stroke-linejoin="round"
>
  <path
    fill-rule="evenodd"
    d="M37.638 27.811c-.243.13-.514.198-.79.197h-1.935L34.76 36h-1.296c-2.5 0-4.903-1.023-6.68-2.855C25.003 31.312 24 28.82 24 26.215V14h9.675c.086.336.148.675.147.907l.193 3.167s2.728 4.035 4.347 7.63a1.62 1.62 0 0 1-.125 1.56c-.15.23-.356.418-.599.547M32.8 12h2.221c1.86 0 3.64.762 4.946 2.109A7.26 7.26 0 0 1 42 19.163V38h-7.28l.039-2H40V19.163a5.26 5.26 0 0 0-1.469-3.662A4.9 4.9 0 0 0 35.021 14h-1.346a6 6 0 0 0-.302-.9q-.27-.577-.573-1.1m0 0H22v.1H8.596c3.216-4.591 9.035-7.026 15.348-5.773C28.148 7.163 30.967 8.85 32.8 12M7.428 14.1H22v5.226H6.037a14.8 14.8 0 0 1 1.39-5.225M6 21.327h16v4.889c0 3.116 1.2 6.11 3.347 8.322A11.4 11.4 0 0 0 30 37.45V38h-2.464v4H10.959V31.657a14.8 14.8 0 0 1-3.7-5.036A14.7 14.7 0 0 1 6 21.326"
    clip-rule="evenodd"
  />
</svg>
